X:773
M:C|
L:1/8
K:F
c>B|A2A>B ABGA|F2c2~c2BA|GFGA BAGF|D2d2d2cB|
|:c/d/e|f2f>g fgag|f2d2c2A2|f2fg fgag|~f2d2d2fg|
agfa g2fe|dfeg gfed|dcBA AGFE|D2d2d2:|

